X: 4149
T: Blue Fiddle
R: polka
M: 2/4
K: Ddorian
|:A,>DD EFD|A, D/E/F AGF|G>Ec EGA|G>EC EDC|
A,>DD EFD|A, D/E/F AGF|G>Ec EDC|D2D4:|
|:d3 edc|dD DE F/G/A|d3 fed|eA AG A/B/c|d3 cBc|
AD DE F/G/A|A>cc AFA|1 G>cc GA/B/c:|2 G>cc GEC||

